!!!OTL: Gerstebinden Nun hoert zw disem rayen,
!!!ARE: Europa, Mitteleuropa, Deutschland
!!!YOR: 6, S. 208
!!    1460 Handschrift Hohenfurt (ca.)
!!!SCT: Q1135B
!!!YEM: Copyright 1995, estate of Helmut Schaffrath.
**kern
*ICvox
*Ivox
*M6/4
*k[f#]
*G:
{4g
=1
2g
4g
2g
4g
=2
2.a
2a}
{4a
=3
2b-
4a
2fn
4g
=4
2.a
2r}
{4a
=5
2b-
4cc
2dd
4dd
=6
2dd
4cc
2a}
{4cc
=7
2b-
4a
2g
4g
=8
2fn
4g
2a}
{4a
=9
4b-
2a
2g
4fn
=10
[2.g
2g]}
==
!!!AGN: Reigen - Lied
!! Melodievergleich zu Q0135C, anderes Lied.
!!!ONB: ESAC (Essen Associative Code) Database: BALLADE
!!!AMT: compound duple
!!!AIN: vox
!!!EED: Helmut Schaffrath
!!!EEV: 1.0
*-
